icons/Finance/refund-fill.svg

<svg viewBox="0 0 24 24" xmlns="http://www.w3.org/2000/svg"><path d="M22.0049 7H2.00488V4C2.00488 3.44772 2.4526 3 3.00488 3H21.0049C21.5572 3 22.0049 3.44772 22.0049 4V7ZM22.0049 9V20C22.0049 20.5523 21.5572 21 21.0049 21H3.00488C2.4526 21 2.00488 20.5523 2.00488 20V9H22.0049ZM11.0049 14V11.5L6.50488 16H17.0049V14H11.0049Z"/></svg>

<svg xmlns="http://www.w3.org/2000/svg" viewBox="0 0 24 24">
    <g>
        <path fill="none" d="M0 0h24v24H0z"/>
        <path d="M22 7H2V4a1 1 0 0 1 1-1h18a1 1 0 0 1 1 1v3zm0 2v11a1 1 0 0 1-1 1H3a1 1 0 0 1-1-1V9h20zm-11 5v-2.5L6.5 16H17v-2h-6z"/>
    </g>
</svg>
